X:34
T:Logie O Buchan. RHu.034
S:R.Hughes MS,1823,Whitchurch,Shrops.
A:Whitchurch, Shropshire
Z:Neil Brookes 2006
M:6/8
L:1/8
Q:3/8=120
R:Jig
K:D
A/G/|FGA Afe|dB.B B2 A/G/|F>GA Ade|fddd2::!
d/e/|fed afd|fe.e e2 d/e/|fgf ede|fdB HB2 A/G/|!
FGA A>fe|dBBB2A/G/|FGA Ad e|fdd d2:|

